X:1
T:C:/Users/Vladimir/Desktop/SI/Resources/test1
K:C
M:4/4
L:1/8
V:1
d2d2ddd2|dddddd2d|d2d2d2d2|d2dd2dd2|_B_B_B2_B_B_B2|_B_B_B2_B2_B_B|_B_B2_B_B2_B2|c2cc2c2c|c2c2cc2c|A2AA2AAA|A2A2A2A2|A2AAA2AA||